poi/svg/1810.svg

<?xml version="1.0" encoding="UTF-8" standalone="no"?>
<svg
   xmlns:dc="http://purl.org/dc/elements/1.1/"
   xmlns:cc="http://creativecommons.org/ns#"
   xmlns:rdf="http://www.w3.org/1999/02/22-rdf-syntax-ns#"
   xmlns:svg="http://www.w3.org/2000/svg"
   xmlns="http://www.w3.org/2000/svg"
   xmlns:sodipodi="http://sodipodi.sourceforge.net/DTD/sodipodi-0.dtd"
   xmlns:inkscape="http://www.inkscape.org/namespaces/inkscape"
   inkscape:version="1.0 (4035a4fb49, 2020-05-01)"
   sodipodi:docname="1810.svg"
   id="svg20"
   version="1.2"
   viewBox="0 0 42.519639 42.519639"
   height="14.999999mm"
   width="14.999999mm">
  <metadata
     id="metadata24">
    <rdf:RDF>
      <cc:Work
         rdf:about="">
        <dc:format>image/svg+xml</dc:format>
        <dc:type
           rdf:resource="http://purl.org/dc/dcmitype/StillImage" />
        <dc:title>Qt SVG Document</dc:title>
      </cc:Work>
    </rdf:RDF>
  </metadata>
  <sodipodi:namedview
     inkscape:current-layer="svg20"
     inkscape:window-maximized="0"
     inkscape:window-y="0"
     inkscape:window-x="0"
     inkscape:cy="28.346482"
     inkscape:cx="28.346482"
     inkscape:zoom="5.8410537"
     showgrid="false"
     id="namedview22"
     inkscape:window-height="480"
     inkscape:window-width="1034"
     inkscape:pageshadow="2"
     inkscape:pageopacity="0"
     guidetolerance="10"
     gridtolerance="10"
     objecttolerance="10"
     borderopacity="1"
     bordercolor="#666666"
     pagecolor="#ffffff" />
  <title
     id="title2">Qt SVG Document</title>
  <desc
     id="desc4">Generated with Qt</desc>
  <defs
     id="defs6" />
  <g
     transform="translate(5.25984,5.25984)"
     id="g18"
     stroke-linejoin="bevel"
     stroke-linecap="square"
     fill-rule="evenodd"
     stroke-width="1"
     stroke="#000000"
     fill="none">
    <g
       id="g10"
       font-style="normal"
       font-weight="400"
       font-size="7.8px"
       font-family="'MS Shell Dlg 2'"
       stroke="none"
       fill-opacity="1"
       fill="#a61215">
      <path
         id="path8"
         d="M 37.2598,16 C 37.2598,27.7415 27.7415,37.2598 16,37.2598 4.25851,37.2598 -5.25984,27.7415 -5.25984,16 -5.25984,4.25851 4.25851,-5.25984 16,-5.25984 27.7415,-5.25984 37.2598,4.25851 37.2598,16"
         fill-rule="evenodd"
         vector-effect="non-scaling-stroke" />
    </g>
    <g
       id="g14"
       font-style="normal"
       font-weight="400"
       font-size="7.8px"
       font-family="'MS Shell Dlg 2'"
       transform="translate(16,12.0315)"
       stroke="none"
       fill-opacity="0.94902"
       fill="#ffffff">
      <path
         id="path12"
         d="M 6.66797,-3.32275 C 6.61198,-4.10661 6.53499,-4.82048 6.43701,-5.46436 6.33903,-6.10824 6.24805,-6.67513 6.16406,-7.16504 6.03809,-7.71094 5.91911,-8.20785 5.80713,-8.65576 H 6.5 c 0.13997,0.47591 0.27995,0.98681 0.41992,1.53271 0.12598,0.48991 0.25196,1.04981 0.37793,1.67969 0.12598,0.62988 0.23096,1.30176 0.31494,2.01563 H 8.1377 l 0.08398,2.498531 -0.44092,0.083984 C 7.80876,0.0226237 7.78776,0.827474 7.71777,1.56934 7.64779,2.3112 7.5708,2.95508 7.48682,3.50098 7.40283,4.04688 7.30485,4.47729 7.19287,4.79224 7.08089,5.10718 6.98991,5.26465 6.91992,5.26465 6.86393,5.29264 6.82894,5.14917 6.81494,4.83423 c -0.014,-0.31494 -0.014,-0.75236 0,-1.31226 0.014,-0.55989 0.028,-1.21077 0.04199,-1.95263 0.014,-0.741866 0.007,-1.5467163 -0.02099,-2.414555 L 6.58398,-0.76123 6.5,-3.32275 H 6.66797 M 5.80713,-1.34912 -8.34424,-0.488281 V -1.79004 L 5.72314,-2.65088 5.80713,-1.34912 M 8.55762,-1.51709 8.47363,-2.81885 9.1665,-2.90283 9.25049,-1.62207 8.55762,-1.51709 M 0.180176,12.7393 c -0.1399742,-0.028 -0.32544,-0.063 -0.556397,-0.105 -0.230957,-0.042 -0.468912,-0.084 -0.713869,-0.126 -0.24495,-0.042 -0.46891,-0.098 -0.67187,-0.168 -0.20297,-0.07 -0.33244,-0.1609 -0.38843,-0.2729 0.02799,-0.112 0.22396,-0.105 0.58789,0.021 0.36393,0.126 0.780355,0.2589 1.249268,0.3989 0.468912,0.14 0.962321,0.217 1.480222,0.231 0.51791,0.014 0.96582,-0.175 1.34375,-0.5669 C 2.7347,11.9414 2.86768,11.686 2.90967,11.385 2.95166,11.0841 2.94466,10.7621 2.88867,10.4192 2.83268,10.0763 2.7452,9.72632 2.62622,9.36938 2.50724,9.01245 2.40576,8.68001 2.32178,8.37207 2.40576,8.2181 2.49325,8.24959 2.58423,8.46655 2.67521,8.68351 2.7627,8.97046 2.84668,9.32739 c 0.08398,0.35694 0.15397,0.73141 0.20996,1.12331 0.05599,0.3919 0.11198,0.6719 0.16797,0.8398 0.18197,0.5179 0.30094,0.8469 0.35693,0.9868 0.05599,0.14 -0.09098,0.385 -0.44091,0.7349 -0.16797,0.196 -0.37444,0.3079 -0.61939,0.3359 -0.24495,0.028 -0.50391,0.021 -0.77686,-0.021 C 1.47144,13.2852 1.19849,13.2082 0.925537,13.0962 0.652588,12.9842 0.404134,12.8652 0.180176,12.7393 M 1.90186,5.87354 C 2.15381,6.0415 2.27279,6.24797 2.25879,6.49292 2.24479,6.73787 2.1958,7.00382 2.11182,7.29077 2.02783,7.57772 1.97184,7.87866 1.94385,8.1936 1.91585,8.50854 2.01383,8.81999 2.23779,9.12793 2.32178,9.56185 2.1993,9.88729 1.87036,10.1042 c -0.32894,0.217 -0.68937,0.4935 -1.081297,0.8294 -0.405925,0.3499 -0.7243657,0.6614 -0.955323,0.9343 -0.230957,0.273 -0.542399,0.2835 -0.93433,0.0315 -0.23795,-0.182 -0.5074,-0.2659 -0.80835,-0.2519 -0.30094,0.014 -0.59488,0.042 -0.88183,0.0839 -0.28695,0.042 -0.5599,0.049 -0.81885,0.021 -0.25895,-0.028 -0.45841,-0.1819 -0.59839,-0.4619 -0.08398,-0.1679 -0.23445,-0.4269 -0.45141,-0.7768 -0.21696,-0.35 -0.40943,-0.63691 -0.5774,-0.86087 C -5.55876,9.33089 -5.8632,8.97746 -6.15015,8.59253 -6.43709,8.2076 -6.62256,7.79468 -6.70654,7.35376 -6.79053,6.91284 -6.73804,6.42643 -6.54907,5.89453 -6.36011,5.36263 -5.95068,4.78174 -5.3208,4.15186 -4.7749,3.60596 -4.20101,3.24552 -3.59912,3.07056 -2.99723,2.89559 -2.44084,2.8466 -1.92993,2.92358 -1.41903,3.00057 -0.974609,3.15104 -0.59668,3.375 -0.21875,3.59896 0.0402018,3.82992 0.180176,4.06787 0.698079,4.9777 1.27197,5.57959 1.90186,5.87354 M -2.73828,9.56885 C -2.48633,9.34489 -2.32536,9.12443 -2.25537,8.90747 -2.18538,8.69051 -2.26237,8.44906 -2.48633,8.18311 -2.73828,7.93115 -3.00773,7.79118 -3.29468,7.76318 -3.58162,7.73519 -3.85807,7.84717 -4.12402,8.09912 c -0.25196,0.23796 -0.38493,0.59139 -0.39893,1.0603 -0.014,0.46892 0.09098,0.83635 0.31494,1.10228 0.25196,0.252 0.49341,0.2555 0.72437,0.0105 0.23095,-0.2449 0.47941,-0.47939 0.74536,-0.70335 M -1.5415,7.32227 C -1.31755,7.58822 -1.08309,7.7002 -0.838135,7.6582 -0.59318,7.61621 -0.337728,7.47624 -0.0717773,7.23828 0.180176,6.98633 0.400635,6.74487 0.5896,6.51392 0.778564,6.28296 0.754069,6.0415 0.516113,5.78955 0.292155,5.5236 -0.0437826,5.39063 -0.491699,5.39063 c -0.447917,0 -0.797851,0.13297 -1.049801,0.39892 -0.25196,0.22396 -0.37093,0.47241 -0.35694,0.74536 0.014,0.27295 0.13298,0.5354 0.35694,0.78736 M 0.789063,9.04395 C 0.495117,8.93197 0.236165,8.83398 0.012207,8.75 -0.225749,8.69401 -0.43571,8.65902 -0.617676,8.64502 -0.799642,8.63102 -0.932617,8.68001 -1.0166,8.79199 -1.14258,8.93197 -1.19857,9.10343 -1.18457,9.3064 c 0.014,0.20296 0.05599,0.38842 0.12598,0.55639 0.083981,0.23791 0.181962,0.45491 0.293942,0.65091 L -0.428711,9.8208 -0.764648,9.04395 0.012207,9.48486 0.789063,9.04395 M 12.001,6.56641 V 15.0698 H -11.6826 V 3.71094 h 3.08641 v 6.27783 h 1.30176 l 0.86084,3.27543 h 5.06005 c 0.028,0.028 0.14348,0.0559 0.34644,0.0839 0.202963,0.028 0.43392,0.07 0.692871,0.126 0.2589523,0.056 0.524903,0.1365 0.797852,0.2415 0.272949,0.105 0.493408,0.2134 0.661377,0.3254 0.22396,0.168 0.5529,0.231 0.98682,0.189 0.43392,-0.042 0.83284,-0.217 1.19677,-0.5249 0.06999,-0.07 0.13298,-0.14 0.18897,-0.21 0.05599,-0.07 0.11198,-0.147 0.16797,-0.2309 H 6.75195 V 9.98877 h 2.1626 V 6.56641 H 12.001"
         fill-rule="evenodd"
         vector-effect="none" />
    </g>
    <g
       id="g16"
       font-style="normal"
       font-weight="400"
       font-size="7.8px"
       font-family="'MS Shell Dlg 2'"
       stroke="none"
       fill-opacity="1"
       fill="#a61215" />
  </g>
</svg>

<?xml version="1.0" encoding="UTF-8" standalone="no"?>
<svg width="11.2889mm" height="11.2889mm"
 viewBox="0 0 32 32"
 xmlns="http://www.w3.org/2000/svg" xmlns:xlink="http://www.w3.org/1999/xlink"  version="1.2" baseProfile="tiny">
<title>Qt SVG Document</title>
<desc>Generated with Qt</desc>
<defs>
</defs>
<g fill="none" stroke="black" stroke-width="1" fill-rule="evenodd" stroke-linecap="square" stroke-linejoin="bevel" >

<g fill="#a61215" fill-opacity="1" stroke="none" transform="matrix(1,0,0,1,0,0)"
font-family="MS Shell Dlg 2" font-size="7.8" font-weight="400" font-style="normal" 
>
<path vector-effect="non-scaling-stroke" fill-rule="evenodd" d="M37.2598,16 C37.2598,27.7415 27.7415,37.2598 16,37.2598 C4.25851,37.2598 -5.25984,27.7415 -5.25984,16 C-5.25984,4.25851 4.25851,-5.25984 16,-5.25984 C27.7415,-5.25984 37.2598,4.25851 37.2598,16 "/>
</g>

<g fill="#ffffff" fill-opacity="0.94902" stroke="none" transform="matrix(1,0,0,1,16,12.0315)"
font-family="MS Shell Dlg 2" font-size="7.8" font-weight="400" font-style="normal" 
>
<path vector-effect="none" fill-rule="evenodd" d="M6.66797,-3.32275 C6.61198,-4.10661 6.53499,-4.82048 6.43701,-5.46436 C6.33903,-6.10824 6.24805,-6.67513 6.16406,-7.16504 C6.03809,-7.71094 5.91911,-8.20785 5.80713,-8.65576 L6.5,-8.65576 C6.63997,-8.17985 6.77995,-7.66895 6.91992,-7.12305 C7.0459,-6.63314 7.17188,-6.07324 7.29785,-5.44336 C7.42383,-4.81348 7.52881,-4.1416 7.61279,-3.42773 L8.1377,-3.42773 L8.22168,-0.929199 L7.78076,-0.845215 C7.80876,0.0226237 7.78776,0.827474 7.71777,1.56934 C7.64779,2.3112 7.5708,2.95508 7.48682,3.50098 C7.40283,4.04688 7.30485,4.47729 7.19287,4.79224 C7.08089,5.10718 6.98991,5.26465 6.91992,5.26465 C6.86393,5.29264 6.82894,5.14917 6.81494,4.83423 C6.80094,4.51929 6.80094,4.08187 6.81494,3.52197 C6.82894,2.96208 6.84294,2.3112 6.85693,1.56934 C6.87093,0.827474 6.86393,0.0226237 6.83594,-0.845215 L6.58398,-0.76123 L6.5,-3.32275 L6.66797,-3.32275 M5.80713,-1.34912 L-8.34424,-0.488281 L-8.34424,-1.79004 L5.72314,-2.65088 L5.80713,-1.34912 M8.55762,-1.51709 L8.47363,-2.81885 L9.1665,-2.90283 L9.25049,-1.62207 L8.55762,-1.51709 M0.180176,12.7393 C0.0402018,12.7113 -0.145264,12.6763 -0.376221,12.6343 C-0.607178,12.5923 -0.845133,12.5503 -1.09009,12.5083 C-1.33504,12.4663 -1.559,12.4103 -1.76196,12.3403 C-1.96493,12.2703 -2.0944,12.1794 -2.15039,12.0674 C-2.1224,11.9554 -1.92643,11.9624 -1.5625,12.0884 C-1.19857,12.2144 -0.782145,12.3473 -0.313232,12.4873 C0.15568,12.6273 0.649089,12.7043 1.16699,12.7183 C1.6849,12.7323 2.13281,12.5433 2.51074,12.1514 C2.7347,11.9414 2.86768,11.686 2.90967,11.385 C2.95166,11.0841 2.94466,10.7621 2.88867,10.4192 C2.83268,10.0763 2.7452,9.72632 2.62622,9.36938 C2.50724,9.01245 2.40576,8.68001 2.32178,8.37207 C2.40576,8.2181 2.49325,8.24959 2.58423,8.46655 C2.67521,8.68351 2.7627,8.97046 2.84668,9.32739 C2.93066,9.68433 3.00065,10.0588 3.05664,10.4507 C3.11263,10.8426 3.16862,11.1226 3.22461,11.2905 C3.40658,11.8084 3.52555,12.1374 3.58154,12.2773 C3.63753,12.4173 3.49056,12.6623 3.14063,13.0122 C2.97266,13.2082 2.76619,13.3201 2.52124,13.3481 C2.27629,13.3761 2.01733,13.3691 1.74438,13.3271 C1.47144,13.2852 1.19849,13.2082 0.925537,13.0962 C0.652588,12.9842 0.404134,12.8652 0.180176,12.7393 M1.90186,5.87354 C2.15381,6.0415 2.27279,6.24797 2.25879,6.49292 C2.24479,6.73787 2.1958,7.00382 2.11182,7.29077 C2.02783,7.57772 1.97184,7.87866 1.94385,8.1936 C1.91585,8.50854 2.01383,8.81999 2.23779,9.12793 C2.32178,9.56185 2.1993,9.88729 1.87036,10.1042 C1.54142,10.3212 1.18099,10.5977 0.789063,10.9336 C0.383138,11.2835 0.0646973,11.595 -0.16626,11.8679 C-0.397217,12.1409 -0.708659,12.1514 -1.10059,11.8994 C-1.33854,11.7174 -1.60799,11.6335 -1.90894,11.6475 C-2.20988,11.6615 -2.50382,11.6895 -2.79077,11.7314 C-3.07772,11.7734 -3.35067,11.7804 -3.60962,11.7524 C-3.86857,11.7244 -4.06803,11.5705 -4.20801,11.2905 C-4.29199,11.1226 -4.44246,10.8636 -4.65942,10.5137 C-4.87638,10.1637 -5.06885,9.87679 -5.23682,9.65283 C-5.55876,9.33089 -5.8632,8.97746 -6.15015,8.59253 C-6.43709,8.2076 -6.62256,7.79468 -6.70654,7.35376 C-6.79053,6.91284 -6.73804,6.42643 -6.54907,5.89453 C-6.36011,5.36263 -5.95068,4.78174 -5.3208,4.15186 C-4.7749,3.60596 -4.20101,3.24552 -3.59912,3.07056 C-2.99723,2.89559 -2.44084,2.8466 -1.92993,2.92358 C-1.41903,3.00057 -0.974609,3.15104 -0.59668,3.375 C-0.21875,3.59896 0.0402018,3.82992 0.180176,4.06787 C0.698079,4.9777 1.27197,5.57959 1.90186,5.87354 M-2.73828,9.56885 C-2.48633,9.34489 -2.32536,9.12443 -2.25537,8.90747 C-2.18538,8.69051 -2.26237,8.44906 -2.48633,8.18311 C-2.73828,7.93115 -3.00773,7.79118 -3.29468,7.76318 C-3.58162,7.73519 -3.85807,7.84717 -4.12402,8.09912 C-4.37598,8.33708 -4.50895,8.69051 -4.52295,9.15942 C-4.53695,9.62834 -4.43197,9.99577 -4.20801,10.2617 C-3.95605,10.5137 -3.7146,10.5172 -3.48364,10.2722 C-3.25269,10.0273 -3.00423,9.79281 -2.73828,9.56885 M-1.5415,7.32227 C-1.31755,7.58822 -1.08309,7.7002 -0.838135,7.6582 C-0.59318,7.61621 -0.337728,7.47624 -0.0717773,7.23828 C0.180176,6.98633 0.400635,6.74487 0.5896,6.51392 C0.778564,6.28296 0.754069,6.0415 0.516113,5.78955 C0.292155,5.5236 -0.0437826,5.39063 -0.491699,5.39063 C-0.939616,5.39063 -1.28955,5.5236 -1.5415,5.78955 C-1.79346,6.01351 -1.91243,6.26196 -1.89844,6.53491 C-1.88444,6.80786 -1.76546,7.07031 -1.5415,7.32227 M0.789063,9.04395 C0.495117,8.93197 0.236165,8.83398 0.012207,8.75 C-0.225749,8.69401 -0.43571,8.65902 -0.617676,8.64502 C-0.799642,8.63102 -0.932617,8.68001 -1.0166,8.79199 C-1.14258,8.93197 -1.19857,9.10343 -1.18457,9.3064 C-1.17057,9.50936 -1.12858,9.69482 -1.05859,9.86279 C-0.974609,10.1007 -0.876628,10.3177 -0.764648,10.5137 L-0.428711,9.8208 L-0.764648,9.04395 L0.012207,9.48486 L0.789063,9.04395 M12.001,6.56641 L12.001,15.0698 L-11.6826,15.0698 L-11.6826,3.71094 L-8.59619,3.71094 L-8.59619,9.98877 L-7.29443,9.98877 L-6.43359,13.2642 L-1.37354,13.2642 C-1.34554,13.2922 -1.23006,13.3201 -1.0271,13.3481 C-0.824137,13.3761 -0.59318,13.4181 -0.334229,13.4741 C-0.0752767,13.5301 0.190674,13.6106 0.463623,13.7156 C0.736572,13.8206 0.957031,13.929 1.125,14.041 C1.34896,14.209 1.6779,14.272 2.11182,14.23 C2.54574,14.188 2.94466,14.013 3.30859,13.7051 C3.37858,13.6351 3.44157,13.5651 3.49756,13.4951 C3.55355,13.4251 3.60954,13.3481 3.66553,13.2642 L6.75195,13.2642 L6.75195,9.98877 L8.91455,9.98877 L8.91455,6.56641 L12.001,6.56641"/>
</g>

<g fill="#a61215" fill-opacity="1" stroke="none" transform="matrix(1,0,0,1,0,0)"
font-family="MS Shell Dlg 2" font-size="7.8" font-weight="400" font-style="normal" 
>
</g>
</g>
</svg>
